packages/kaspersky-hexa-ui-icons/src/iconsSVGs/16/SalePetkaTag.svg

<svg width="16" height="16" viewBox="0 0 16 16" fill="none" xmlns="http://www.w3.org/2000/svg">
<path fill-rule="evenodd" clip-rule="evenodd" d="M8.44434 6.67729C8.6835 6.67735 8.87775 6.87174 8.87793 7.11088C8.87793 7.35016 8.68361 7.54441 8.44434 7.54447H8.43359V7.55521L8.43848 7.63822C8.48927 8.04891 8.91384 8.45561 9.55566 8.45561C10.2405 8.45556 10.6777 7.99199 10.6777 7.55521C10.678 7.31609 10.8721 7.12162 11.1113 7.12162C11.3504 7.12174 11.5447 7.31616 11.5449 7.55521C11.5449 8.36479 10.9602 8.9856 10.2119 9.21928V9.77787C10.2118 10.9988 9.22089 11.9886 8 11.9888C6.77911 11.9886 5.78918 10.9988 5.78906 9.77787V9.21928C5.04039 8.98579 4.45508 8.36507 4.45508 7.55521C4.45531 7.31616 4.64959 7.12174 4.88867 7.12162C5.12785 7.12162 5.32203 7.31609 5.32227 7.55521C5.32227 7.99196 5.7596 8.45551 6.44434 8.45561C7.08609 8.45556 7.5107 8.04888 7.56152 7.63822L7.56641 7.55521V7.54447H7.55566C7.31634 7.54447 7.12207 7.3502 7.12207 7.11088C7.12225 6.87171 7.31645 6.67729 7.55566 6.67729H8.44434ZM8.43359 9.77787C8.43336 10.017 8.23918 10.2115 8 10.2115C7.76082 10.2115 7.56664 10.017 7.56641 9.77787V9.01225C7.29655 9.17489 6.98384 9.27939 6.65625 9.31107V9.77787C6.65637 10.5201 7.25776 11.1224 8 11.1226C8.74224 11.1224 9.34461 10.5201 9.34473 9.77787V9.31107C9.01678 9.27948 8.70369 9.17507 8.43359 9.01225V9.77787Z" fill="black"/>
<path d="M6 4.8892C6.36805 4.8892 6.66676 5.18722 6.66699 5.55521C6.66699 5.9234 6.36819 6.22221 6 6.22221C5.63181 6.22221 5.33301 5.9234 5.33301 5.55521C5.33324 5.18722 5.63195 4.8892 6 4.8892Z" fill="black"/>
<path d="M10 4.8892C10.368 4.8892 10.6668 5.18722 10.667 5.55521C10.667 5.9234 10.3682 6.22221 10 6.22221C9.63181 6.22221 9.33301 5.9234 9.33301 5.55521C9.33324 5.18722 9.63196 4.8892 10 4.8892Z" fill="black"/>
<path fill-rule="evenodd" clip-rule="evenodd" d="M6.83301 1.26908C7.62209 0.884898 8.55468 0.911986 9.32324 1.35111L13.1299 3.52689L13.2822 3.62064C14.0232 4.11244 14.4736 4.94513 14.4736 5.84232V10.1578C14.4736 11.055 14.0233 11.8876 13.2822 12.3794L13.1299 12.4732L9.32324 14.649C8.55467 15.0881 7.6221 15.1152 6.83301 14.731L6.67676 14.649L2.86914 12.4732C2.03845 11.9983 1.52544 11.1146 1.52539 10.1578V5.84232C1.52546 4.88547 2.03844 4.00174 2.86914 3.52689L6.67676 1.35111L6.83301 1.26908ZM8.67773 2.48002C8.31011 2.27013 7.86927 2.2434 7.4834 2.40092L7.32227 2.48002L3.51465 4.6558C3.08881 4.89915 2.82624 5.35187 2.82617 5.84232V10.1578C2.82622 10.6482 3.08882 11.1009 3.51465 11.3443L7.32227 13.5201L7.4834 13.5992C7.86928 13.7567 8.3101 13.73 8.67773 13.5201L12.4854 11.3443L12.6377 11.2437C12.9731 10.9873 13.1738 10.5868 13.1738 10.1578V5.84232C13.1738 5.41331 12.9731 5.0128 12.6377 4.75639L12.4854 4.6558L8.67773 2.48002Z" fill="black"/>
</svg>

<svg xmlns="http://www.w3.org/2000/svg" width="16" height="16" fill="none" viewBox="0 0 16 16"><path fill="#000" fill-rule="evenodd" d="M8.4443 6.6773a.434.434 0 0 1 .4336.4336.434.434 0 0 1-.4336.4336h-.0107v.0107l.0049.083c.0508.4107.4753.8174 1.1172.8174.6848 0 1.122-.4636 1.122-.9004a.434.434 0 0 1 .4336-.4336.4343.4343 0 0 1 .4336.4336c0 .8096-.5847 1.4304-1.333 1.664v.5587c-.0001 1.2209-.991 2.2107-2.2119 2.2109-1.2209-.0002-2.2108-.99-2.211-2.211v-.5585c-.7486-.2335-1.334-.8542-1.334-1.664a.4343.4343 0 0 1 .4337-.4337.434.434 0 0 1 .4336.4336c0 .4368.4373.9003 1.122.9004.6418 0 1.0664-.4067 1.1172-.8174l.005-.083v-.0107h-.0108a.434.434 0 0 1-.4336-.4336.434.434 0 0 1 .4336-.4336zm-.0107 3.1006A.434.434 0 0 1 8 10.2115a.434.434 0 0 1-.4336-.4336v-.7657a2.174 2.174 0 0 1-.9101.2989v.4668c0 .7422.6015 1.3445 1.3437 1.3447.7422-.0002 1.3446-.6025 1.3447-1.3447V9.311a2.174 2.174 0 0 1-.9111-.2988z" clip-rule="evenodd"/><path fill="#000" d="M6 4.889c.368 0 .667.298.667.666A.667.667 0 0 1 6 6.222a.667.667 0 0 1-.667-.667A.667.667 0 0 1 6 4.889m4 0c.368 0 .667.298.667.666a.667.667 0 0 1-.667.667.667.667 0 0 1-.667-.667.667.667 0 0 1 .667-.666"/><path fill="#000" fill-rule="evenodd" d="M6.833 1.269a2.667 2.667 0 0 1 2.4902.0821L13.13 3.527l.1523.0937a2.667 2.667 0 0 1 1.1914 2.2217v4.3155a2.666 2.666 0 0 1-1.1914 2.2216l-.1523.0938-3.8067 2.1758a2.667 2.667 0 0 1-2.4902.082l-.1562-.082-3.8077-2.1758a2.668 2.668 0 0 1-1.3437-2.3154V5.8423c0-.9568.513-1.8406 1.3437-2.3154L6.6768 1.351zM8.6777 2.48a1.367 1.367 0 0 0-1.1943-.079l-.1611.079-3.8076 2.1758a1.367 1.367 0 0 0-.6885 1.1865v4.3155c0 .4904.2626.9431.6885 1.1865l3.8076 2.1758.1611.0791a1.367 1.367 0 0 0 1.1943-.0791l3.8077-2.1758.1523-.1006a1.367 1.367 0 0 0 .5361-1.0859V5.8423a1.367 1.367 0 0 0-.5361-1.086l-.1523-.1005z" clip-rule="evenodd"/></svg>
